Icons/com_pinterest.svg

<svg viewBox="0 0 48 48" xmlns:xlink="http://www.w3.org/1999/xlink">
 <defs>
  <linearGradient id="0">
   <stop stop-opacity="0"/>
   <stop offset="1"/>
  </linearGradient>
  <linearGradient xlink:href="#0" id="1" gradientUnits="userSpaceOnUse" gradientTransform="translate(4e-7,-48)" y1="47" x2="0" y2="1"/>
  <clipPath id="2">
   <g transform="translate(0,-1004.3622)">
    <rect rx="4" y="1005.36" x="1" height="46" width="46" fill="#1890d0"/>
   </g>
  </clipPath>
  <clipPath id="3">
   <g transform="translate(0,-1004.3622)">
    <rect rx="4" y="1005.36" x="1" height="46" width="46" fill="#1890d0"/>
   </g>
  </clipPath>
 </defs>
 <g>
  <g transform="translate(0,-1004.3622)">
   <path d="m 5,1006.3622 c -2.216,0 -4,1.784 -4,4 l 0,37.25 c 0,2.216 1.784,4 4,4 l 38,0 c 2.216,0 4,-1.784 4,-4 l 0,-37.25 c 0,-2.216 -1.784,-4 -4,-4 l -38,0 z m -4,41.5 0,0.5 c 0,2.216 1.784,4 4,4 l 38,0 c 2.216,0 4,-1.784 4,-4 l 0,-0.5 c 0,2.216 -1.784,4 -4,4 l -38,0 c -2.216,0 -4,-1.784 -4,-4 z" opacity="0.02"/>
   <path d="m 1,1047.6122 0,0.25 c 0,2.216 1.784,4 4,4 l 38,0 c 2.216,0 4,-1.784 4,-4 l 0,-0.25 c 0,2.216 -1.784,4 -4,4 l -38,0 c -2.216,0 -4,-1.784 -4,-4 z" opacity="0.05"/>
   <rect width="46" height="46" x="1" y="1005.61" rx="4" opacity="0.1"/>
  </g>
 </g>
 <g>
  <g transform="translate(0,-1004.3622)">
   <rect rx="4" y="1005.36" x="1" height="46" width="46" fill="#dd232b"/>
  </g>
 </g>
 <g>
  <rect transform="scale(1,-1)" width="46" height="46" x="1" y="-46.998" rx="4" opacity="0.1" fill="url(#1)"/>
 </g>
 <g>
  <g clip-path="url(#2)">
   <g opacity="0.1">
    <g>
     <path d="M 24.605469 11 C 17.554688 11 14 16.085938 14 20.328125 C 14 22.898438 14.964844 25.183594 17.039062 26.035156 C 17.378906 26.175781 17.683594 26.039062 17.78125 25.660156 C 17.851562 25.398438 18.011719 24.738281 18.085938 24.460938 C 18.183594 24.085938 18.144531 23.957031 17.871094 23.628906 C 17.273438 22.921875 16.890625 22.003906 16.890625 20.699219 C 16.890625 16.925781 19.695312 13.546875 24.199219 13.546875 C 28.183594 13.546875 30.371094 16 30.371094 19.269531 C 30.371094 23.578125 28.480469 27.210938 25.667969 27.210938 C 24.113281 27.210938 22.953125 25.921875 23.324219 24.335938 C 23.769531 22.445312 24.636719 20.402344 24.636719 19.035156 C 24.636719 17.8125 23.984375 16.792969 22.632812 16.792969 C 21.046875 16.792969 19.773438 18.445312 19.773438 20.660156 C 19.773438 22.070312 20.246094 23.023438 20.246094 23.023438 C 20.246094 23.023438 18.621094 29.949219 18.335938 31.160156 C 17.769531 33.574219 18.25 36.535156 18.292969 36.835938 C 18.316406 37.011719 18.542969 37.054688 18.644531 36.921875 C 18.792969 36.730469 20.683594 34.378906 21.324219 32.035156 C 21.507812 31.371094 22.367188 27.929688 22.367188 27.929688 C 22.882812 28.917969 24.390625 29.789062 25.992188 29.789062 C 30.761719 29.789062 34 25.414062 34 19.554688 C 34 15.125 30.273438 11 24.605469 11 Z M 24.605469 11 "/>
    </g>
   </g>
  </g>
 </g>
 <g>
  <g clip-path="url(#3)">
   <g transform="translate(0,-1)">
    <g>
     <path d="M 24.605469 11 C 17.554688 11 14 16.085938 14 20.328125 C 14 22.898438 14.964844 25.183594 17.039062 26.035156 C 17.378906 26.175781 17.683594 26.039062 17.78125 25.660156 C 17.851562 25.398438 18.011719 24.738281 18.085938 24.460938 C 18.183594 24.085938 18.144531 23.957031 17.871094 23.628906 C 17.273438 22.921875 16.890625 22.003906 16.890625 20.699219 C 16.890625 16.925781 19.695312 13.546875 24.199219 13.546875 C 28.183594 13.546875 30.371094 16 30.371094 19.269531 C 30.371094 23.578125 28.480469 27.210938 25.667969 27.210938 C 24.113281 27.210938 22.953125 25.921875 23.324219 24.335938 C 23.769531 22.445312 24.636719 20.402344 24.636719 19.035156 C 24.636719 17.8125 23.984375 16.792969 22.632812 16.792969 C 21.046875 16.792969 19.773438 18.445312 19.773438 20.660156 C 19.773438 22.070312 20.246094 23.023438 20.246094 23.023438 C 20.246094 23.023438 18.621094 29.949219 18.335938 31.160156 C 17.769531 33.574219 18.25 36.535156 18.292969 36.835938 C 18.316406 37.011719 18.542969 37.054688 18.644531 36.921875 C 18.792969 36.730469 20.683594 34.378906 21.324219 32.035156 C 21.507812 31.371094 22.367188 27.929688 22.367188 27.929688 C 22.882812 28.917969 24.390625 29.789062 25.992188 29.789062 C 30.761719 29.789062 34 25.414062 34 19.554688 C 34 15.125 30.273438 11 24.605469 11 Z M 24.605469 11 " fill="#f9f9f9"/>
    </g>
   </g>
  </g>
 </g>
 <g>
  <g transform="translate(0,-1004.3622)">
   <path d="m 1,1043.3622 0,4 c 0,2.216 1.784,4 4,4 l 38,0 c 2.216,0 4,-1.784 4,-4 l 0,-4 c 0,2.216 -1.784,4 -4,4 l -38,0 c -2.216,0 -4,-1.784 -4,-4 z" opacity="0.1"/>
  </g>
 </g>
</svg>

<svg viewBox="0 0 48 48"><defs><linearGradient id="linearGradient3764" x1="1" x2="47" gradientUnits="userSpaceOnUse" gradientTransform="translate(-48.000001,0.00221467)"><stop stop-color="#cd1f28" stop-opacity="1"/><stop offset="1" stop-color="#dd232b" stop-opacity="1"/></linearGradient><clipPath id="clipPath-023067270"><g transform="translate(0,-1004.3622)"><rect rx="4" y="1005.36" x="1" height="46" width="46" fill="#1890d0"/></g></clipPath><clipPath id="clipPath-036323854"><g transform="translate(0,-1004.3622)"><rect rx="4" y="1005.36" x="1" height="46" width="46" fill="#1890d0"/></g></clipPath></defs><g><path d="m 1 43 l 0 0.25 c 0 2.216 1.784 4 4 4 l 38 0 c 2.216 0 4 -1.784 4 -4 l 0 -0.25 c 0 2.216 -1.784 4 -4 4 l -38 0 c -2.216 0 -4 -1.784 -4 -4 z m 0 0.5 l 0 0.5 c 0 2.216 1.784 4 4 4 l 38 0 c 2.216 0 4 -1.784 4 -4 l 0 -0.5 c 0 2.216 -1.784 4 -4 4 l -38 0 c -2.216 0 -4 -1.784 -4 -4 z" opacity="0.02"/><path d="m 1 43.25 l 0 0.25 c 0 2.216 1.784 4 4 4 l 38 0 c 2.216 0 4 -1.784 4 -4 l 0 -0.25 c 0 2.216 -1.784 4 -4 4 l -38 0 c -2.216 0 -4 -1.784 -4 -4 z" opacity="0.05"/><path d="m 1 43 l 0 0.25 c 0 2.216 1.784 4 4 4 l 38 0 c 2.216 0 4 -1.784 4 -4 l 0 -0.25 c 0 2.216 -1.784 4 -4 4 l -38 0 c -2.216 0 -4 -1.784 -4 -4 z" opacity="0.1"/></g><g><rect width="46" height="46" x="-47" y="1" rx="4" transform="matrix(0,-1,1,0,0,0)" fill="url(#linearGradient3764)" fill-opacity="1"/></g><g><g clip-path="url(#clipPath-023067270)"><g opacity="0.1"><!-- color: #dd232b --><g><path d="m 24.605 11 c -7.05 0 -10.605 5.086 -10.605 9.328 c 0 2.57 0.965 4.855 3.039 5.707 c 0.34 0.141 0.645 0.004 0.742 -0.375 c 0.07 -0.262 0.23 -0.922 0.305 -1.199 c 0.098 -0.375 0.059 -0.504 -0.215 -0.832 c -0.598 -0.707 -0.98 -1.625 -0.98 -2.93 c 0 -3.773 2.805 -7.152 7.309 -7.152 c 3.984 0 6.172 2.453 6.172 5.723 c 0 4.309 -1.891 7.941 -4.703 7.941 c -1.555 0 -2.715 -1.289 -2.344 -2.875 c 0.445 -1.891 1.313 -3.934 1.313 -5.301 c 0 -1.223 -0.652 -2.242 -2 -2.242 c -1.586 0 -2.859 1.652 -2.859 3.867 c 0 1.41 0.473 2.363 0.473 2.363 c 0 0 -1.625 6.926 -1.91 8.137 c -0.566 2.414 -0.086 5.375 -0.043 5.676 c 0.023 0.176 0.25 0.219 0.352 0.086 c 0.148 -0.191 2.039 -2.543 2.68 -4.887 c 0.184 -0.664 1.043 -4.105 1.043 -4.105 c 0.516 0.988 2.023 1.859 3.625 1.859 c 4.77 0 8.01 -4.375 8.01 -10.234 c 0 -4.43 -3.727 -8.555 -9.395 -8.555 m 0 0" fill="#000"/></g></g></g></g><g><g clip-path="url(#clipPath-036323854)"><g transform="translate(0,-1)"><!-- color: #dd232b --><g><path d="m 24.605 11 c -7.05 0 -10.605 5.086 -10.605 9.328 c 0 2.57 0.965 4.855 3.039 5.707 c 0.34 0.141 0.645 0.004 0.742 -0.375 c 0.07 -0.262 0.23 -0.922 0.305 -1.199 c 0.098 -0.375 0.059 -0.504 -0.215 -0.832 c -0.598 -0.707 -0.98 -1.625 -0.98 -2.93 c 0 -3.773 2.805 -7.152 7.309 -7.152 c 3.984 0 6.172 2.453 6.172 5.723 c 0 4.309 -1.891 7.941 -4.703 7.941 c -1.555 0 -2.715 -1.289 -2.344 -2.875 c 0.445 -1.891 1.313 -3.934 1.313 -5.301 c 0 -1.223 -0.652 -2.242 -2 -2.242 c -1.586 0 -2.859 1.652 -2.859 3.867 c 0 1.41 0.473 2.363 0.473 2.363 c 0 0 -1.625 6.926 -1.91 8.137 c -0.566 2.414 -0.086 5.375 -0.043 5.676 c 0.023 0.176 0.25 0.219 0.352 0.086 c 0.148 -0.191 2.039 -2.543 2.68 -4.887 c 0.184 -0.664 1.043 -4.105 1.043 -4.105 c 0.516 0.988 2.023 1.859 3.625 1.859 c 4.77 0 8.01 -4.375 8.01 -10.234 c 0 -4.43 -3.727 -8.555 -9.395 -8.555 m 0 0" fill="#f9f9f9"/></g></g></g></g><g><g transform="translate(0,-1004.3622)"><path d="m 1 1043.36 0 4 c 0 2.216 1.784 4 4 4 l 38 0 c 2.216 0 4 -1.784 4 -4 l 0 -4 c 0 2.216 -1.784 4 -4 4 l -38 0 c -2.216 0 -4 -1.784 -4 -4 z" opacity="0.1"/></g></g></svg>
